svg/remove-network-card.svg

<?xml version="1.0" encoding="UTF-8"?>
<svg xmlns="http://www.w3.org/2000/svg" xmlns:xlink="http://www.w3.org/1999/xlink" width="32" height="32" viewBox="0 0 32 32">
<defs>
<clipPath id="clip-0">
<path clip-rule="nonzero" d="M 1.25 3.75 L 30.125 3.75 L 30.125 27.625 L 1.25 27.625 Z M 1.25 3.75 "/>
</clipPath>
<clipPath id="clip-1">
<path clip-rule="nonzero" d="M 0 32 L 0 0 L 32 0 L 32 32 Z M 16.894531 16.640625 C 16.894531 20.019531 19.660156 22.785156 23.039062 22.785156 C 26.417969 22.785156 29.183594 20.019531 29.183594 16.640625 C 29.183594 13.261719 26.417969 10.496094 23.039062 10.496094 C 19.660156 10.496094 16.894531 13.261719 16.894531 16.640625 "/>
</clipPath>
</defs>
<g clip-path="url(#clip-0)">
<g clip-path="url(#clip-1)">
<path fill-rule="nonzero" fill="rgb(0%, 0%, 0%)" fill-opacity="1" d="M 1.28125 3.839844 L 1.28125 5.121094 L 3.839844 5.121094 C 4.203125 5.121094 4.480469 5.398438 4.480469 5.757812 L 4.480469 27.519531 L 5.761719 27.519531 L 5.761719 24.320312 L 8.320312 24.320312 L 8.320312 22.398438 C 8.324219 22.046875 8.609375 21.761719 8.960938 21.761719 L 15.359375 21.761719 C 15.710938 21.761719 15.996094 22.046875 16 22.398438 L 16 24.320312 L 30.078125 24.320312 L 30.078125 9.601562 L 5.761719 9.601562 L 5.761719 5.761719 C 5.757812 4.703125 4.898438 3.84375 3.839844 3.839844 Z M 19.839844 11.519531 L 21.121094 11.519531 L 21.121094 13.441406 L 19.839844 13.441406 L 19.839844 14.71875 L 17.921875 14.71875 L 17.921875 13.441406 L 19.839844 13.441406 Z M 22.398438 11.519531 L 23.679688 11.519531 L 23.679688 13.441406 L 22.398438 13.441406 Z M 24.960938 11.519531 L 26.238281 11.519531 L 26.238281 13.441406 L 28.160156 13.441406 L 28.160156 14.71875 L 26.238281 14.71875 L 26.238281 13.441406 L 24.960938 13.441406 Z M 13.441406 12.800781 C 14.148438 12.800781 14.71875 13.375 14.71875 14.082031 C 14.71875 14.789062 14.144531 15.359375 13.4375 15.359375 C 12.730469 15.359375 12.15625 14.785156 12.160156 14.078125 C 12.160156 13.371094 12.734375 12.800781 13.441406 12.800781 M 5.761719 13.441406 L 8.320312 13.441406 L 8.320312 18.558594 L 5.761719 18.558594 Z M 17.921875 16 L 19.839844 16 L 19.839844 17.28125 L 17.921875 17.28125 Z M 26.238281 16 L 28.160156 16 L 28.160156 17.28125 L 26.238281 17.28125 Z M 17.921875 18.558594 L 19.839844 18.558594 L 19.839844 19.839844 L 21.121094 19.839844 L 21.121094 21.761719 L 19.839844 21.761719 L 19.839844 19.839844 L 17.921875 19.839844 Z M 26.238281 18.558594 L 28.160156 18.558594 L 28.160156 19.839844 L 26.238281 19.839844 L 26.238281 21.761719 L 24.960938 21.761719 L 24.960938 19.839844 L 26.238281 19.839844 Z M 22.398438 19.839844 L 23.679688 19.839844 L 23.679688 21.761719 L 22.398438 21.761719 Z M 22.398438 19.839844 "/>
</g>
</g>
<path fill-rule="nonzero" fill="rgb(0%, 0%, 0%)" fill-opacity="1" d="M 23.039062 11.519531 C 20.222656 11.519531 17.921875 13.824219 17.921875 16.640625 C 17.921875 19.457031 20.222656 21.761719 23.039062 21.761719 C 25.855469 21.761719 28.160156 19.457031 28.160156 16.640625 C 28.160156 13.824219 25.855469 11.519531 23.039062 11.519531 M 25.546875 17.152344 L 20.53125 17.152344 C 20.222656 17.152344 20.019531 16.945312 20.019531 16.640625 C 20.019531 16.332031 20.222656 16.128906 20.53125 16.128906 L 25.601562 16.128906 C 25.90625 16.128906 26.113281 16.332031 26.113281 16.640625 C 26.113281 16.945312 25.855469 17.152344 25.546875 17.152344 "/>
</svg>

<svg role="img" viewBox="0 0 32 32" height="32" width="32" xmlns="http://www.w3.org/2000/svg"><defs><clipPath id="502__500__347__345__76__74__355__353__346__344__76__74__260__258__156__154__234__232__76__74__remove-network-card_svg__svg/remove-network-card.svg469__svg/remove-network-card.svg465__clip-0"><path d="M1.25 3.75h28.875v23.875H1.25Zm0 0"/></clipPath><clipPath id="503__501__348__346__77__75__356__354__347__345__77__75__261__259__157__155__235__233__77__75__remove-network-card_svg__svg/remove-network-card.svg471__svg/remove-network-card.svg467__clip-1"><path d="M0 32V0h32v32Zm16.895-15.36c0 3.38 2.765 6.145 6.144 6.145s6.145-2.765 6.145-6.144c0-3.38-2.766-6.145-6.145-6.145-3.379 0-6.144 2.766-6.144 6.145"/></clipPath></defs><g clip-path="url(#502__500__347__345__76__74__355__353__346__344__76__74__260__258__156__154__234__232__76__74__remove-network-card_svg__svg/remove-network-card.svg469__svg/remove-network-card.svg465__clip-0)"><g clip-path="url(#503__501__348__346__77__75__356__354__347__345__77__75__261__259__157__155__235__233__77__75__remove-network-card_svg__svg/remove-network-card.svg471__svg/remove-network-card.svg467__clip-1)"><path d="M1.281 3.84v1.28H3.84c.363 0 .64.277.64.637V27.52h1.282v-3.2H8.32v-1.922a.643.643 0 0 1 .64-.636h6.4c.35 0 .636.285.64.636v1.922h14.078V9.602H5.762v-3.84A1.93 1.93 0 0 0 3.84 3.84Zm18.559 7.68h1.281v1.921H19.84v1.278h-1.918V13.44h1.918Zm2.558 0h1.282v1.921h-1.282Zm2.563 0h1.277v1.921h1.922v1.278h-1.922V13.44h-1.277ZM13.44 12.8a1.279 1.279 0 1 1-.004 2.56 1.279 1.279 0 1 1 .004-2.559m-7.68.64h2.56v5.118H5.76ZM17.922 16h1.919v1.281h-1.918Zm8.317 0h1.922v1.281h-1.922Zm-8.316 2.559h1.918v1.28h1.281v1.923H19.84V19.84h-1.918Zm8.316 0h1.922v1.28h-1.922v1.923h-1.277V19.84h1.277Zm-3.84 1.28h1.282v1.923h-1.282Zm0 0"/></g></g><path d="M23.04 11.52c-2.817 0-5.118 2.304-5.118 5.12 0 2.817 2.3 5.122 5.117 5.122 2.816 0 5.121-2.305 5.121-5.121 0-2.817-2.305-5.121-5.12-5.121m2.507 5.632H20.53c-.308 0-.511-.207-.511-.511 0-.309.203-.512.511-.512h5.07c.305 0 .512.203.512.512 0 .304-.258.511-.566.511"/></svg>
